svgs/light/wallet.svg

<svg xmlns="http://www.w3.org/2000/svg" viewBox="0 0 512 512"><!-- Font Awesome Pro 6.0.0-alpha2 by @fontawesome - https://fontawesome.com License - https://fontawesome.com/license (Commercial License) --><path d="M448 96H112C103.125 96 96 103.125 96 112S103.125 128 112 128H448C465.674 128 480 142.326 480 160V416C480 433.6 465.6 448 448 448H96C60.801 448 32 419.199 32 384V128C32 92.799 60.801 64 96 64H464C472.836 64 480 56.836 480 48C480 39.162 472.836 32 464 32H96C42.98 32 0 74.98 0 128V384C0 437.02 42.98 480 96 480H448C483.346 480 512 451.346 512 416V160C512 124.652 483.346 96 448 96ZM408 288C408 274.781 397.219 264 384 264S360 274.781 360 288S370.781 312 384 312S408 301.219 408 288Z"/></svg>

<svg xmlns="http://www.w3.org/2000/svg" viewBox="0 0 512 512"><!--! Font Awesome Pro 6.0.0-alpha3 by @fontawesome - https://fontawesome.com License - https://fontawesome.com/license (Commercial License) --><path d="M448 96H112C103.1 96 96 103.1 96 112S103.1 128 112 128H448c17.67 0 32 14.33 32 32v256c0 17.6-14.4 32-32 32H96c-35.2 0-64-28.8-64-64V128c0-35.2 28.8-64 64-64h368C472.8 64 480 56.84 480 48C480 39.16 472.8 32 464 32H96C42.98 32 0 74.98 0 128v256c0 53.02 42.98 96 96 96h352c35.35 0 64-28.65 64-64V160C512 124.7 483.3 96 448 96zM408 288c0-13.22-10.78-24-24-24S360 274.8 360 288S370.8 312 384 312S408 301.2 408 288z"/></svg>
